X:689
T:I buried my wife and danced on her grave
R:Jig
O:Ireland
S:Henrik Norbeck's abc files
Z:Transcription:Henrik Norbeck(?),slight arrangement, chords:Mike Long
M:6/8
L:1/8
K:G
A,|\
"D"DED F2G|AdB cAF|"C"G2A BAG|"G"FAF GEA|\
"D"DED F2G|AdB cAF|"C"G2A "G"BAG|"D"AFD D2:|
|:A|\
"D"d2e fed|faf gfe|d2e fed|"C"dcA dcA|\
"D"d2e fed|faf gfe|"C"dcA "G"BAG|"D"AFD D2:|
